src/rounded/icons/fi-rr-medicine.svg

<svg id="Layer_1" height="512" viewBox="0 0 24 24" width="512" xmlns="http://www.w3.org/2000/svg" data-name="Layer 1"><path d="m16 7-.023-1.177a2.992 2.992 0 0 0 -.977-5.823h-6a2.993 2.993 0 0 0 -1 5.816v1.184a5.006 5.006 0 0 0 -5 5v7a5.006 5.006 0 0 0 5 5h8a5.006 5.006 0 0 0 5-5v-7a5.006 5.006 0 0 0 -5-5zm-7-5h6a1 1 0 0 1 0 2h-6a1 1 0 0 1 0-2zm10 17a3 3 0 0 1 -3 3h-8a3 3 0 0 1 -3-3v-7a3 3 0 0 1 3-3h1a1 1 0 0 0 1-1v-2h3.973l.027 2.014a1 1 0 0 0 1 .986h1a3 3 0 0 1 3 3zm-3-4a1 1 0 0 1 -1 1h-2v2a1 1 0 0 1 -2 0v-2h-2a1 1 0 0 1 0-2h2v-2a1 1 0 0 1 2 0v2h2a1 1 0 0 1 1 1z"/></svg>

<svg id="Layer_1" data-name="Layer 1" xmlns="http://www.w3.org/2000/svg" viewBox="0 0 24 24"><path d="M16,7l-.023-1.177A2.992,2.992,0,0,0,15,0H9A2.993,2.993,0,0,0,8,5.816V7a5.006,5.006,0,0,0-5,5v7a5.006,5.006,0,0,0,5,5h8a5.006,5.006,0,0,0,5-5V12A5.006,5.006,0,0,0,16,7ZM9,2h6a1,1,0,0,1,0,2H9A1,1,0,0,1,9,2ZM19,19a3,3,0,0,1-3,3H8a3,3,0,0,1-3-3V12A3,3,0,0,1,8,9H9a1,1,0,0,0,1-1V6h3.973L14,8.014A1,1,0,0,0,15,9h1a3,3,0,0,1,3,3Zm-3-4a1,1,0,0,1-1,1H13v2a1,1,0,0,1-2,0V16H9a1,1,0,0,1,0-2h2V12a1,1,0,0,1,2,0v2h2A1,1,0,0,1,16,15Z"/></svg>
